img/icon.svg

<svg viewBox="0 0 500 500" xmlns="http://www.w3.org/2000/svg"><path d="M120.25 428.915c-19.837-12.411-37.535-27.671-52.461-45.232 2.797-4.676 3.98-10.093 3.98-16.077V180.224c1.381.958 2.144 1.602 3.011 2.079 14.279 7.862 28.561 15.776 42.934 23.5 2.035 1.096 2.429 2.355 2.429 4.346-.038 71.375-.024 142.778-.076 214.153 0 1.563.052 3.087.183 4.613zm106.222 34.623c-21.301-1.602-41.754-5.997-61-12.827 7.776-5.278 11.967-12.297 11.992-21.545.041-62.115.015-124.244.015-186.347v-4.409c5.071 2.935 9.539 5.657 14.123 8.127 9.721 5.267 19.456 10.519 29.298 15.547 4.164 2.129 5.712 4.763 5.701 9.576-.199 63.967-.159 127.935-.129 191.878zm18.048.679h-.143a237.33 237.33 0 0 0 39.427-3.289c.066-65.956.04-131.941 0-197.912 0-6.149.08-12.348-.803-18.383-.513-3.579-2.559-7.079-4.439-10.357-3.063-5.304-8.488-8.164-13.757-11.061-7.423-4.071-14.871-8.09-22.295-12.159-8.131-4.486-16.184-9.047-24.33-13.495-10.603-5.758-21.296-11.313-31.833-17.147-11.656-6.451-23.135-13.141-34.752-19.655-5.661-3.176-11.481-6.149-17.196-9.274a10216.54 10216.54 0 0 1-33.752-18.357c-7.002-3.844-13.952-7.749-20.982-11.555-5.123-2.759-10.587-5.026-15.436-8.164-.263-.175-.537-.34-.827-.504 16.04-20.096 35.59-37.42 57.832-51.14-1.917 5.794-1.497 11.944 1.013 18.23 2.678 6.741 8.146 11.327 14.557 14.83 10.615 5.783 21.349 11.415 31.976 17.212 9.907 5.417 19.748 10.975 29.641 16.441a3875.367 3875.367 0 0 0 25.842 14.237c7.304 3.983 14.661 7.888 21.979 11.844 5.82 3.138 11.653 6.236 17.394 9.462 6.331 3.565 12.522 7.359 18.892 10.849 8.356 4.587 16.83 8.972 25.238 13.48 6.582 3.542 13.125 7.145 19.683 10.698 3.047 1.651 4.886 3.415 4.86 7.522-.211 70.645-.131 141.316-.211 211.962 0 5.67.867 10.873 3.783 15.938 1.974 3.402 4.39 6.098 7.162 8.203a230.231 230.231 0 0 0 46.414-28.514c.161-36.841.069-73.693.069-110.534 0-38.516-.029-77.033.011-115.563 0-4.952-.892-9.601-3.179-14.15-2.574-5.178-6.451-9.085-11.483-11.908-8.093-4.547-16.357-8.794-24.488-13.266-11.863-6.539-23.623-13.228-35.486-19.742-10.602-5.822-21.335-11.44-31.952-17.211-13.611-7.396-27.169-14.867-40.74-22.339-9.893-5.443-19.748-10.95-29.613-16.456-7.331-4.094-14.623-8.24-21.966-12.31-4.729-2.619-9.512-5.191-14.294-7.748-4.1-2.168-8.463-3.943-12.285-6.478a25.44 25.44 0 0 0-6.371-3.023c24.435-9.65 50.988-15.358 78.814-16.277a34.749 34.749 0 0 0 4.742 3.124c13.177 7.283 26.262 14.716 39.468 21.973 9.143 5.027 18.444 9.841 27.629 14.83 8.722 4.738 17.354 9.615 26.064 14.364 7.397 4.045 14.861 7.938 22.27 11.931 5.832 3.151 11.627 6.35 17.408 9.601 5.15 2.897 10.182 5.997 15.382 8.818 6.335 3.441 12.876 6.515 19.21 9.967 8.724 4.75 17.302 9.727 25.985 14.528 2.222 1.247 3.3 2.607 3.3 5.417-.146 71.277-.157 142.539.013 213.803 0 1.637.118 3.325.341 5 21.6-33.413 34.093-72.836 34.12-115.031v.138c.012 120.74-102.044 218.6-227.906 218.6z" fill="#D60936"/><path d="M67.606 383.997c-32.255-37.749-51.619-86.042-51.619-138.657 0-49.945 17.446-95.984 46.823-132.825.21.126.422.252.632.39-29.378 36.792-46.838 82.805-46.838 132.736 0 52.35 19.182 100.405 51.198 138.042-.05.113-.117.201-.196.314zm97.733 66.79a231.881 231.881 0 0 1-45.051-21.621c0-.088-.027-.175-.027-.251a231.997 231.997 0 0 0 45.195 21.796 1.156 1.156 0 0 1-.117.076zm78.867 13.43c-5.965 0-11.89-.226-17.75-.641v-.027c5.914.442 11.878.681 17.907.681-.037-.013-.091-.013-.157-.013z" fill="#E3E3E3"/><path d="M244.377 464.217c-6.032 0-11.994-.239-17.905-.679-.03-63.943-.07-127.911.14-191.878.029-4.8-1.521-7.433-5.7-9.576-9.854-5.052-19.562-10.294-29.286-15.547-4.597-2.495-9.049-5.206-14.121-8.127v4.409c0 62.103.013 124.218-.014 186.347 0 9.248-4.192 16.267-11.983 21.534a231.804 231.804 0 0 1-45.22-21.799 53.2 53.2 0 0 1-.183-4.611c.051-71.377.038-142.777.078-214.155 0-2.002-.381-3.249-2.429-4.346-14.374-7.724-28.642-15.636-42.936-23.51-.865-.479-1.628-1.121-3.009-2.066V367.592c0 5.985-1.182 11.39-3.981 16.078-32.002-37.635-51.197-85.702-51.197-138.042 0-49.932 17.448-95.931 46.822-132.748.263.165.526.354.816.517 4.861 3.137 10.313 5.417 15.45 8.164 7.016 3.806 13.964 7.711 20.968 11.541 11.207 6.175 22.453 12.273 33.712 18.383 5.715 3.113 11.508 6.074 17.185 9.274 11.613 6.514 23.083 13.204 34.736 19.655 10.551 5.834 21.257 11.389 31.847 17.147 8.146 4.448 16.197 9.009 24.332 13.495 7.423 4.096 14.872 8.088 22.295 12.159 5.28 2.897 10.694 5.77 13.755 11.061 1.878 3.278 3.914 6.755 4.439 10.357.882 6.047.803 12.261.803 18.383.04 65.971.053 131.956 0 197.912-12.782 2.156-25.961 3.278-39.414 3.289z" fill="#BF0830"/><path d="M121.274 61.739c.118-.365.25-.705.381-1.084a230.427 230.427 0 0 1 35.012-17.512c.369.086.71.201 1.078.3a233.097 233.097 0 0 0-36.471 18.296z" fill="#E3E3E3"/><path d="M343.068 442.673c-2.784-2.092-5.202-4.789-7.147-8.203-2.929-5.065-3.796-10.293-3.796-15.938.077-70.671-.012-141.317.21-211.962.028-4.107-1.812-5.871-4.862-7.522-6.554-3.577-13.098-7.168-19.679-10.709-8.396-4.511-16.896-8.895-25.237-13.495-6.373-3.501-12.55-7.294-18.881-10.834-5.768-3.239-11.601-6.338-17.394-9.475-7.332-3.944-14.675-7.851-21.994-11.831a5806.445 5806.445 0 0 1-25.842-14.239c-9.88-5.467-19.706-11.025-29.639-16.442-10.614-5.795-21.348-11.415-31.979-17.211-6.411-3.49-11.876-8.089-14.555-14.828-2.51-6.289-2.929-12.462-1.012-18.245a229.8 229.8 0 0 1 36.471-18.269 26.388 26.388 0 0 1 6.372 3.05c3.822 2.531 8.185 4.296 12.284 6.475 4.784 2.544 9.537 5.115 14.293 7.736 7.319 4.082 14.635 8.228 21.954 12.322 9.88 5.506 19.735 11 29.626 16.456a9781.383 9781.383 0 0 0 40.727 22.325c10.63 5.785 21.365 11.403 31.965 17.212 11.851 6.513 23.623 13.216 35.487 19.743 8.131 4.484 16.394 8.718 24.488 13.268 5.031 2.835 8.896 6.74 11.482 11.917 2.259 4.524 3.181 9.175 3.181 14.125-.04 38.517-.025 77.034-.025 115.564 0 36.841.116 73.694-.055 110.535a231.482 231.482 0 0 1-46.443 28.475z" fill="#BF0830"/><path d="M472.438 245.49C472.346 124.85 370.342 27.066 244.52 27.066c-2.679 0-5.333.036-8.001.125a9.897 9.897 0 0 1-.695-.578c2.784-.102 5.584-.153 8.397-.153 126.044 0 228.217 97.986 228.217 218.866v.164z" fill="#E3E3E3"/><path d="M438.306 360.524a35.833 35.833 0 0 1-.341-4.99c-.159-71.274-.134-142.538-.027-213.814 0-2.796-1.051-4.158-3.286-5.393-8.683-4.799-17.261-9.788-25.985-14.526-6.334-3.452-12.864-6.539-19.21-9.967-5.2-2.808-10.232-5.921-15.382-8.806a1284.49 1284.49 0 0 0-17.408-9.601c-7.409-3.995-14.886-7.901-22.283-11.92-8.697-4.748-17.341-9.639-26.051-14.375-9.185-4.991-18.461-9.79-27.629-14.818-13.206-7.27-26.291-14.703-39.468-21.987a36.462 36.462 0 0 1-4.756-3.123c2.668-.089 5.321-.126 8.002-.126 125.823 0 227.839 97.785 227.917 218.437 0 42.185-12.469 81.594-34.093 115.009z" fill="#BF0830"/><path d="M204.162 165.633a97.665 97.665 0 0 1 26.289 3.605c8.593 2.406 16.054 5.998 22.374 10.81 6.515-4.17 13.885-7.624 22.045-10.33 8.158-2.723 18-4.085 29.561-4.085a95.107 95.107 0 0 1 24.317 3.14c7.936 2.091 15.018 5.379 21.219 9.877 6.201 4.499 11.154 10.444 14.846 17.853 3.691 7.408 5.544 16.443 5.544 27.076v98.656c-2.18.618-5.61 1.245-10.287 1.863-4.691.632-9.538.945-14.533.945-4.793 0-9.089-.313-12.886-.945-3.81-.618-7.029-1.863-9.645-3.753-2.599-1.891-4.636-4.448-6.057-7.674-1.403-3.225-2.113-7.472-2.113-12.674v-74.855c0-6.25-1.853-10.811-5.558-13.633-3.705-2.809-8.697-4.22-15.016-4.22-3.062 0-6.307.68-9.789 2.041-3.482 1.36-6.11 2.771-7.856 4.221.223.843.329 1.613.329 2.343v106.314c-2.39.631-5.926 1.248-10.615 1.878-4.691.617-9.42.932-14.202.932-4.785 0-9.079-.315-12.89-.932-3.809-.63-7.03-1.878-9.629-3.768-2.614-1.89-4.624-4.435-6.045-7.66-1.419-3.239-2.128-7.472-2.128-12.687v-74.843c0-6.26-2.009-10.809-6.043-13.632-4.033-2.809-8.88-4.22-14.517-4.22-3.928 0-7.29.567-10.13 1.725-2.825 1.148-5.215 2.231-7.187 3.278v109.917c-2.179.617-5.609 1.248-10.272 1.866-4.691.629-9.538.943-14.53.943-4.797 0-9.079-.314-12.889-.943-3.812-.618-7.029-1.866-9.63-3.756-2.603-1.889-4.624-4.447-6.045-7.672-1.419-3.226-2.126-7.472-2.126-12.676v-94.572c0-5.632 1.247-10.129 3.757-13.47 2.482-3.338 5.925-6.475 10.272-9.399 7.41-5.001 16.607-9.084 27.591-12.221 11.024-3.073 22.503-4.663 34.474-4.663z" fill="#fff"/></svg>

<?xml version="1.0" encoding="utf-8"?>
<svg viewBox="0 0 500 500" xmlns="http://www.w3.org/2000/svg">
  <path d="M 120.25 428.915 C 100.413 416.504 82.715 401.244 67.789 383.683 C 70.586 379.007 71.769 373.59 71.769 367.606 C 71.769 306.408 71.769 245.214 71.769 184.043 L 71.769 180.224 C 73.15 181.182 73.913 181.826 74.78 182.303 C 89.059 190.165 103.341 198.079 117.714 205.803 C 119.749 206.899 120.143 208.158 120.143 210.149 C 120.105 281.524 120.119 352.927 120.067 424.302 C 120.067 425.865 120.119 427.389 120.25 428.915 Z M 226.472 463.538 C 205.171 461.936 184.718 457.541 165.472 450.711 C 173.248 445.433 177.439 438.414 177.464 429.166 C 177.505 367.051 177.479 304.922 177.479 242.819 L 177.479 238.41 C 182.55 241.345 187.018 244.067 191.602 246.537 C 201.323 251.804 211.058 257.056 220.9 262.084 C 225.064 264.213 226.612 266.847 226.601 271.66 C 226.402 335.627 226.442 399.595 226.472 463.538 Z M 244.52 464.217 C 244.469 464.217 244.43 464.217 244.377 464.217 C 257.817 464.217 271.009 463.084 283.804 460.928 C 283.87 394.972 283.844 328.987 283.804 263.016 C 283.804 256.867 283.884 250.668 283.001 244.633 C 282.488 241.054 280.442 237.554 278.562 234.276 C 275.499 228.972 270.074 226.112 264.805 223.215 C 257.382 219.144 249.934 215.125 242.51 211.056 C 234.379 206.57 226.326 202.009 218.18 197.561 C 207.577 191.803 196.884 186.248 186.347 180.414 C 174.691 173.963 163.212 167.273 151.595 160.759 C 145.934 157.583 140.114 154.61 134.399 151.485 C 123.126 145.375 111.867 139.264 100.647 133.128 C 93.645 129.284 86.695 125.379 79.665 121.573 C 74.542 118.814 69.078 116.547 64.229 113.409 C 63.966 113.234 63.692 113.069 63.402 112.905 C 79.442 92.809 98.992 75.485 121.234 61.765 C 119.317 67.559 119.737 73.709 122.247 79.995 C 124.925 86.736 130.393 91.322 136.804 94.825 C 147.419 100.608 158.153 106.24 168.78 112.037 C 178.687 117.454 188.528 123.012 198.421 128.478 C 207.027 133.253 215.618 138.004 224.263 142.715 C 231.567 146.698 238.924 150.603 246.242 154.559 C 252.062 157.697 257.895 160.795 263.636 164.021 C 269.967 167.586 276.158 171.38 282.528 174.87 C 290.884 179.457 299.358 183.842 307.766 188.35 C 314.348 191.892 320.891 195.495 327.449 199.048 C 330.496 200.699 332.335 202.463 332.309 206.57 C 332.098 277.215 332.178 347.886 332.098 418.532 C 332.098 424.202 332.965 429.405 335.881 434.47 C 337.855 437.872 340.271 440.568 343.043 442.673 C 359.74 434.962 375.294 425.373 389.457 414.159 C 389.618 377.318 389.526 340.466 389.526 303.625 C 389.526 265.109 389.497 226.592 389.537 188.062 C 389.537 183.11 388.645 178.461 386.358 173.912 C 383.784 168.734 379.907 164.827 374.875 162.004 C 366.782 157.457 358.518 153.21 350.387 148.738 C 338.524 142.199 326.764 135.51 314.901 128.996 C 304.299 123.174 293.566 117.556 282.949 111.785 C 269.338 104.389 255.78 96.918 242.209 89.446 C 232.316 84.003 222.461 78.496 212.596 72.99 C 205.265 68.896 197.973 64.75 190.63 60.68 C 185.901 58.061 181.118 55.489 176.336 52.932 C 172.236 50.764 167.873 48.989 164.051 46.454 C 162.03 45.119 159.875 44.124 157.68 43.431 C 182.115 33.781 208.668 28.073 236.494 27.154 C 237.926 28.275 239.487 29.319 241.236 30.278 C 254.413 37.561 267.498 44.994 280.704 52.251 C 289.847 57.278 299.148 62.092 308.333 67.081 C 317.055 71.819 325.687 76.696 334.397 81.445 C 341.794 85.49 349.258 89.383 356.667 93.376 C 362.499 96.527 368.294 99.726 374.075 102.977 C 379.225 105.874 384.257 108.974 389.457 111.795 C 395.792 115.236 402.333 118.31 408.667 121.762 C 417.391 126.512 425.969 131.489 434.652 136.29 C 436.874 137.537 437.952 138.897 437.952 141.707 C 437.806 212.984 437.795 284.246 437.965 355.51 C 437.965 357.147 438.083 358.835 438.306 360.51 C 459.906 327.097 472.399 287.674 472.426 245.479 C 472.426 245.529 472.426 245.565 472.426 245.617 C 472.438 366.357 370.382 464.217 244.52 464.217 Z" fill="#D60936" style=""/>
  <path d="M 67.606 383.997 C 35.351 346.248 15.987 297.955 15.987 245.34 C 15.987 195.395 33.433 149.356 62.81 112.515 C 63.02 112.641 63.232 112.767 63.442 112.905 C 34.064 149.697 16.604 195.71 16.604 245.641 C 16.604 297.991 35.786 346.046 67.802 383.683 C 67.752 383.796 67.685 383.884 67.606 383.997 Z M 165.339 450.787 C 149.403 445.155 134.334 437.884 120.288 429.166 C 120.288 429.078 120.261 428.991 120.261 428.915 C 134.334 437.695 149.48 445.041 165.456 450.711 C 165.443 450.724 165.379 450.763 165.339 450.787 Z M 244.206 464.217 C 238.241 464.217 232.316 463.991 226.456 463.576 L 226.456 463.549 C 232.37 463.991 238.334 464.23 244.363 464.23 C 244.326 464.217 244.272 464.217 244.206 464.217 Z" fill="#E3E3E3" style=""/>
  <path d="M 244.377 464.217 C 238.345 464.217 232.383 463.978 226.472 463.538 C 226.442 399.595 226.402 335.627 226.612 271.66 C 226.641 266.86 225.091 264.227 220.912 262.084 C 211.058 257.032 201.35 251.79 191.626 246.537 C 187.029 244.042 182.577 241.331 177.505 238.41 L 177.505 242.819 C 177.505 304.922 177.518 367.037 177.491 429.166 C 177.491 438.414 173.299 445.433 165.508 450.7 C 149.507 445.029 134.373 437.683 120.288 428.901 C 120.156 427.378 120.105 425.853 120.105 424.29 C 120.156 352.913 120.143 281.513 120.183 210.135 C 120.183 208.133 119.802 206.886 117.754 205.789 C 103.38 198.065 89.112 190.153 74.818 182.279 C 73.953 181.8 73.19 181.158 71.809 180.213 L 71.809 184.031 C 71.809 245.214 71.809 306.396 71.809 367.592 C 71.809 373.577 70.627 378.982 67.828 383.67 C 35.826 346.035 16.631 297.968 16.631 245.628 C 16.631 195.696 34.079 149.697 63.453 112.88 C 63.716 113.045 63.979 113.234 64.269 113.397 C 69.13 116.534 74.582 118.814 79.719 121.561 C 86.735 125.367 93.683 129.272 100.687 133.102 C 111.894 139.277 123.14 145.375 134.399 151.485 C 140.114 154.598 145.907 157.559 151.584 160.759 C 163.197 167.273 174.667 173.963 186.32 180.414 C 196.871 186.248 207.577 191.803 218.167 197.561 C 226.313 202.009 234.364 206.57 242.499 211.056 C 249.922 215.152 257.371 219.144 264.794 223.215 C 270.074 226.112 275.488 228.985 278.549 234.276 C 280.427 237.554 282.463 241.031 282.988 244.633 C 283.87 250.68 283.791 256.894 283.791 263.016 C 283.831 328.987 283.844 394.972 283.791 460.928 C 271.009 463.084 257.83 464.206 244.377 464.217 Z" fill="#BF0830" style=""/>
  <path d="M 121.274 61.739 C 121.392 61.374 121.524 61.034 121.655 60.655 C 132.717 53.89 144.421 48.017 156.667 43.143 C 157.036 43.229 157.377 43.344 157.745 43.443 C 144.961 48.509 132.757 54.657 121.274 61.739 Z" fill="#E3E3E3" style=""/>
  <path d="M 343.068 442.673 C 340.284 440.581 337.866 437.884 335.921 434.47 C 332.992 429.405 332.125 424.177 332.125 418.532 C 332.202 347.861 332.113 277.215 332.335 206.57 C 332.363 202.463 330.523 200.699 327.473 199.048 C 320.919 195.471 314.375 191.88 307.794 188.339 C 299.398 183.828 290.898 179.444 282.557 174.844 C 276.184 171.343 270.007 167.55 263.676 164.01 C 257.908 160.771 252.075 157.672 246.282 154.535 C 238.95 150.591 231.607 146.684 224.288 142.704 C 215.671 137.991 207.052 133.229 198.446 128.465 C 188.566 122.998 178.74 117.44 168.807 112.023 C 158.193 106.228 147.459 100.608 136.828 94.812 C 130.417 91.322 124.952 86.723 122.273 79.984 C 119.763 73.695 119.344 67.522 121.261 61.739 C 132.744 54.646 144.95 48.509 157.732 43.47 C 159.927 44.187 162.055 45.171 164.104 46.52 C 167.926 49.051 172.289 50.816 176.388 52.995 C 181.172 55.539 185.925 58.11 190.681 60.731 C 198 64.813 205.316 68.959 212.635 73.053 C 222.515 78.559 232.37 84.053 242.261 89.509 C 255.82 96.98 269.391 104.426 282.988 111.834 C 293.618 117.619 304.353 123.237 314.953 129.046 C 326.804 135.559 338.576 142.262 350.44 148.789 C 358.571 153.273 366.834 157.507 374.928 162.057 C 379.959 164.892 383.824 168.797 386.41 173.974 C 388.669 178.498 389.591 183.149 389.591 188.099 C 389.551 226.616 389.566 265.133 389.566 303.663 C 389.566 340.504 389.682 377.357 389.511 414.198 C 375.334 425.373 359.78 434.974 343.068 442.673 Z" fill="#BF0830" style=""/>
  <path d="M 472.438 245.49 C 472.346 124.85 370.342 27.066 244.52 27.066 C 241.841 27.066 239.187 27.102 236.519 27.191 C 236.284 27.015 236.046 26.814 235.824 26.613 C 238.608 26.511 241.408 26.46 244.221 26.46 C 370.265 26.46 472.438 124.446 472.438 245.326 C 472.438 245.389 472.438 245.44 472.438 245.49 Z" fill="#E3E3E3" style=""/>
  <path d="M 438.306 360.524 C 438.069 358.848 437.965 357.159 437.965 355.534 C 437.806 284.26 437.831 212.996 437.938 141.72 C 437.938 138.924 436.887 137.562 434.652 136.327 C 425.969 131.528 417.391 126.539 408.667 121.801 C 402.333 118.349 395.803 115.262 389.457 111.834 C 384.257 109.026 379.225 105.913 374.075 103.028 C 368.294 99.776 362.499 96.59 356.667 93.427 C 349.258 89.432 341.781 85.526 334.384 81.507 C 325.687 76.759 317.043 71.868 308.333 67.132 C 299.148 62.141 289.872 57.342 280.704 52.314 C 267.498 45.044 254.413 37.611 241.236 30.327 C 239.503 29.372 237.926 28.325 236.48 27.204 C 239.148 27.115 241.801 27.078 244.482 27.078 C 370.305 27.078 472.321 124.863 472.399 245.515 C 472.399 287.7 459.93 327.109 438.306 360.524 Z" fill="#BF0830" style=""/>
  <path d="M 204.162 165.633 C 213.083 165.633 221.843 166.844 230.451 169.238 C 239.044 171.644 246.505 175.236 252.825 180.048 C 259.34 175.878 266.71 172.424 274.87 169.718 C 283.028 166.995 292.87 165.633 304.431 165.633 C 312.693 165.633 320.799 166.68 328.748 168.773 C 336.684 170.864 343.766 174.152 349.967 178.65 C 356.168 183.149 361.121 189.094 364.813 196.503 C 368.504 203.911 370.357 212.946 370.357 223.579 L 370.357 322.235 C 368.177 322.853 364.747 323.48 360.07 324.098 C 355.379 324.73 350.532 325.043 345.537 325.043 C 340.744 325.043 336.448 324.73 332.651 324.098 C 328.841 323.48 325.622 322.235 323.006 320.345 C 320.407 318.454 318.37 315.897 316.949 312.671 C 315.546 309.446 314.836 305.199 314.836 299.997 L 314.836 225.142 C 314.836 218.892 312.983 214.331 309.278 211.509 C 305.573 208.7 300.581 207.289 294.262 207.289 C 291.2 207.289 287.955 207.969 284.473 209.33 C 280.991 210.69 278.363 212.101 276.617 213.551 C 276.84 214.394 276.946 215.164 276.946 215.894 L 276.946 217.935 L 276.946 322.208 C 274.556 322.839 271.02 323.456 266.331 324.086 C 261.64 324.703 256.911 325.018 252.129 325.018 C 247.344 325.018 243.05 324.703 239.239 324.086 C 235.43 323.456 232.209 322.208 229.61 320.318 C 226.996 318.428 224.986 315.883 223.565 312.658 C 222.146 309.419 221.437 305.186 221.437 299.971 L 221.437 225.128 C 221.437 218.868 219.428 214.319 215.394 211.496 C 211.361 208.687 206.514 207.276 200.877 207.276 C 196.949 207.276 193.587 207.843 190.747 209.001 C 187.922 210.149 185.532 211.232 183.56 212.279 L 183.56 322.196 C 181.381 322.813 177.951 323.444 173.288 324.062 C 168.597 324.691 163.75 325.005 158.758 325.005 C 153.961 325.005 149.679 324.691 145.869 324.062 C 142.057 323.444 138.84 322.196 136.239 320.306 C 133.636 318.417 131.615 315.859 130.194 312.634 C 128.775 309.408 128.068 305.162 128.068 299.958 L 128.068 205.386 C 128.068 199.754 129.315 195.257 131.825 191.916 C 134.307 188.578 137.75 185.441 142.097 182.517 C 149.507 177.516 158.704 173.433 169.688 170.296 C 180.712 167.223 192.191 165.633 204.162 165.633 Z" fill="white" style=""/>
</svg>
